!!!OTL: Jerman Weizers Frau Was kan uns kommen an fuer noth
!!!ARE: Europa, Mitteleuropa, Deutschland (Text: Bayern, Nuernberg)
!!!YOR: 5, S. 216
!!    1608 Handschrift (1603/08)
!!!SCT: Q0108C
!!!YEM: Copyright 1995, estate of Helmut Schaffrath.
**kern
*ICvox
*M4/4
*met(c)
*k[f#]
*G:
=1
!LO:TX:a:t=Fabricius, 1603/08. Bl. 1462
!LO:TX:a:t=(Was kan vns kom-men an für noth...)
{2g
4g
4b
=2
4a
4g
16aL
16g
16a
16bJ
16ccL
16a
16b
16ccJ
=3
4b}
{8gL
8a
8b
8gJ
16bL
16a
16b
16ccJ
=4
4dd
4b
2a
=5
2g
2g}
=6
{2g
4g
4b
=7
4a
4g
16aL
16g
16a
16bJ
16ccL
16a
16b
16ccJ
=8
4b}
{8gL
8a
8b
8aJ
16bL
16a
16b
16ccJ
=9
4dd
4b
2a
=10
2g
2g}
=11
{8bL
8a
8b
8ccJ
8bL
8bJ
4a
=12
4f#
4g
4e
4d}
=13
{2d
4g
4g
=14
8gL
8f#
8g
8aJ
2b}
=15
{8gL
8f#
8g
8aJ
8bL
8aJ
16bL
16a
16b
16ccJ
=16
4dd
4b
2a
=17
4g
2.g}
==
!!!AGN: Ballade, Schein - Tod, Geburt, Grab, Auferstehen; geistlich, Choral, Zeitungs - Lied
!! Geistliche Kontrafaktur? Tonangabe des Chorals zu dieser Ballade.
!!!ONB: ESAC (Essen Associative Code) Database: BALLADE
!!!AMT: simple quadruple
!!!AIN: vox
!!!EED: Helmut Schaffrath
!!!EEV: 1.0
!!!source: Deutsche Volkslieder mit ihren Melodien Balladen. Herausgegeben vom Deutschen Volksliedarchiv. Fünfter Teil. Freiburg/Breisgau 1965.
!!!page: 216
!!!ENC: Anna Maria Matuszewska
!!!EEV: 2025/03/04
*-
